img/icon-02-pr.svg

<svg width="24" height="23" viewBox="0 0 24 23" fill="none" xmlns="http://www.w3.org/2000/svg">
<g clip-path="url(#clip0)">
<path d="M22.3844 0.938232H2.05078V20.7688H22.3844V0.938232Z" fill="#2A0034"/>
<path fill-rule="evenodd" clip-rule="evenodd" d="M1.12695 0.0114746V21.6953H23.309V0.0114746H1.12695ZM2.05121 0.938136H22.3848V20.7686H2.05121V0.938136Z" fill="#EA77FF"/>
<path fill-rule="evenodd" clip-rule="evenodd" d="M6.94967 5.08966C6.94967 5.02479 6.96815 4.97846 7.0421 4.97846C7.63362 4.95066 8.50239 4.93213 9.41744 4.93213C11.9776 4.93213 13.096 6.34065 13.096 8.13834C13.096 10.4921 11.3953 11.5021 9.3065 11.5021C8.95532 11.5021 8.83513 11.4836 8.58557 11.4836V15.042C8.58557 15.1161 8.55789 15.1532 8.47471 15.1532H7.05134C6.9774 15.1532 6.94043 15.1254 6.94043 15.042V5.08966H6.94967ZM8.58557 10.0102C8.7982 10.0288 8.96457 10.0288 9.33425 10.0288C10.4156 10.0288 11.4323 9.64886 11.4323 8.17544C11.4323 6.99859 10.7114 6.40552 9.47287 6.40552C9.10319 6.40552 8.75195 6.42405 8.58557 6.43332V10.0102ZM14.5008 9.16699C14.5008 9.05577 14.5008 8.78701 14.4546 8.26811C14.4546 8.19398 14.4638 8.17544 14.5286 8.14761C15.0923 7.91595 16.414 7.50821 17.9113 7.50821C17.9853 7.50821 18.0222 7.52676 18.0222 7.60089V8.94454C18.0222 9.01867 17.9945 9.03722 17.9206 9.03722C17.3383 9.00946 16.4972 9.08359 16.1737 9.22257V15.0606C16.1737 15.1347 16.146 15.1717 16.0628 15.1717H14.6117C14.5378 15.1717 14.5008 15.1439 14.5008 15.0606V9.16699Z" fill="#EA77FF"/>
</g>
<defs>
<clipPath id="clip0">
<rect width="22.7812" height="22.1484" fill="white" transform="translate(0.929688)"/>
</clipPath>
</defs>
</svg>

<svg width="24" height="23" fill="none" xmlns="http://www.w3.org/2000/svg"><g clip-path="url(#clip0)"><path d="M22.384.938H2.051v19.83h20.333V.939z" fill="#2A0034"/><path fill-rule="evenodd" clip-rule="evenodd" d="M1.127.011v21.684h22.182V.011H1.127zm.924.927h20.334v19.83H2.05V.939z" fill="#EA77FF"/><path fill-rule="evenodd" clip-rule="evenodd" d="M6.95 5.09c0-.065.018-.112.092-.112.592-.027 1.46-.046 2.375-.046 2.56 0 3.679 1.409 3.679 3.206 0 2.354-1.7 3.364-3.79 3.364-.35 0-.47-.018-.72-.018v3.558c0 .074-.028.111-.111.111H7.05c-.074 0-.11-.028-.11-.111V5.09h.009zm1.636 4.92c.212.019.379.019.748.019 1.082 0 2.098-.38 2.098-1.854 0-1.176-.72-1.77-1.96-1.77-.369 0-.72.02-.886.028v3.577zm5.915-.843c0-.111 0-.38-.046-.899 0-.074.009-.093.074-.12.563-.232 1.885-.64 3.382-.64.074 0 .111.019.111.093v1.344c0 .074-.027.092-.101.092-.583-.028-1.424.047-1.747.186v5.838c0 .074-.028.11-.111.11h-1.451c-.074 0-.111-.027-.111-.11V9.167z" fill="#EA77FF"/></g><defs><clipPath id="clip0"><path fill="#fff" transform="translate(.93)" d="M0 0h22.781v22.148H0z"/></clipPath></defs></svg>
